X:151
T:Roast Beef or Dinner Call - Regulation Fife Calls 1776-1856, #5 *
B:American Veteran Fifer, Regulation Fife Calls 1776-1856, #5
M:6/8
L:1/8
Q:1/4=90
K:D
a|ded cde|fdf edc|ded cBA|BGB A2:||:A|BGB dcB|AFD B2A|
Agf edc|def A2 a|BGB dcB|AFD B2 A|GAB cAc|d3 d2:|
